X: 192
T: Rabbit Up a Gum Stump
B: canberra pickers and fiddlers
B: old time tunes update
B: tunes
M:C|
L:1/8
R: Reel
Q: 1/4=100
K:A
V:1 
[A2g2]-|"*"[A2a2] ab a2e2|fafe e2ce|a2ac' ac'e2| cABc A2[Ag]-[Aa]-|
[Aa] [Aa]c' ac' e2|fafa e2ce|aaac' ac' e2|cABc A2||
[GA]-[AA]-|:[A2A2] AB +slide+c2 Ac|BcBA  A2EG|[A2A2] AB +slide+c2 Bc|1 AcBc A2EF:|2 AcBc A2||
"*"[A2a2] ac' ac' ea|fafa e2ce||
% abcbook-tune_id 67a7d9ecca25d3058ae23d4c
% abcbook-tune_composer_id 
% abcbook-link-0 https://www.youtube.com/watch?v=5rU87_vHDKY
% abcbook-link-title-0 Whitetop Mountain Band - Rabbit Up a Gum Stump
% abcbook-boost 0
% abcbook-difficulty 0
% abcbook-tags old time tunes
% abcbook-tablature 
% abcbook-transpose 
% abcbook-tuning GDAD
% abcbook-lastupdated 1739219130815
% abcbook-src-url 
% abcbook-soundfonts 
% abcbook-repeats 1


